X: 1612
T: Joe Yates Hornpipe No 3
B: australian traditional tunes wiki
M:4/4
L:1/8
R: Hornpipe
Q: 1/4=100
K:G
V:1 
"G" G,B,DG B2 cB |"Am" BAAG A2 B2 |"D7" BAAG AcBA |  "G" GFGA G2 G,2 |
"G" G,B,DG B2 cB |"Am" BAAG A2 B2 |"D7" BAAG ADBA |"G" G2 G2 G2 Bc |
"G" dB d2 b2 a2 | g2 B2 d4 |"D7" (3ded cA DF A2 | cAFA"G" G2 Bc |
"G" dB d2 b2 a2 | g2 Be d4 |  "D7" d<e c2 DFAc |"G" B2 G2 G2 z2 |
% abcbook-tune_id 6342d53ae49dc2e75cd3b3df


% abcbook-boost 0
% abcbook-tablature 
% abcbook-transpose 
% abcbook-lastupdated 1665324373963
% abcbook-soundfonts 
% abcbook-repeats 1
% NFF Book 2017
% Bush Traditions recording played by Tony Stuart

